tools/download-figma-icons/icons/solid/cloud-disconnect.svg

<svg width="24" height="24" viewBox="0 0 24 24" fill="none" xmlns="http://www.w3.org/2000/svg">
<path fill-rule="evenodd" clip-rule="evenodd" d="M12 3C14.1525 3 16.125 3.9675 17.4217 5.54925L3.95175 19.0192C1.6875 18.465 0 16.4243 0 13.9943C0 11.1667 2.2725 8.86425 5.085 8.81925C5.655 5.4975 8.56425 3 12 3ZM18.0882 19.1734C21.3507 19.1734 23.9982 16.5184 23.9982 13.2551C23.9982 10.5484 22.1607 8.25262 19.6632 7.55512L21.5607 5.65762C21.8532 5.36512 21.8532 4.89337 21.5607 4.60012H21.5532C21.2615 4.30762 20.7882 4.30762 20.4957 4.60012L17.6907 7.40512L6.68071 18.4151L4.64071 20.4559V20.4626C4.34821 20.7551 4.34821 21.2276 4.64071 21.5209C4.78321 21.6626 4.97821 21.7384 5.16571 21.7384C5.35996 21.7384 5.55571 21.6626 5.69896 21.5209L8.04496 19.1734H18.0882Z" fill="black"/>
</svg>

<svg width="24" height="24" viewBox="0 0 24 24" fill="none" xmlns="http://www.w3.org/2000/svg"><path fill-rule="evenodd" clip-rule="evenodd" d="M12 3a7 7 0 0 1 5.422 2.55L3.952 19.02C1.688 18.464 0 16.423 0 13.993A5.177 5.177 0 0 1 5.085 8.82 7.029 7.029 0 0 1 12 3Zm6.088 16.173c3.263 0 5.91-2.655 5.91-5.918 0-2.707-1.837-5.002-4.335-5.7l1.898-1.897a.747.747 0 0 0 0-1.058h-.008a.747.747 0 0 0-1.057 0L17.69 7.405 6.68 18.415l-2.04 2.04v.008a.748.748 0 1 0 1.058 1.058l2.346-2.348h10.043Z" fill="currentColor"/></svg>
